svg/300/sharp/flight_class.svg

<svg xmlns="http://www.w3.org/2000/svg" width="48" height="48" viewBox="0 -960 960 960"><path d="M492.309-460.001v-319.998h207.69v319.998h-207.69Zm45.383-45.384h116.923v-229.23H537.692v229.23Zm162.307 245.384h-367.69L220.001-641.077v-138.922h45.384v131.076l101.014 343.538h333.6v45.384Zm-371.921 120v-45.384h371.536v45.384H328.078Zm209.614-594.614h116.923-116.923Z"/></svg>

<svg xmlns="http://www.w3.org/2000/svg" width="48" height="48" viewBox="0 -960 960 960"><path d="M492.31-460v-320H700v320H492.31Zm45.38-45.39h116.92v-229.22H537.69v229.22ZM700-260H332.31L220-641.08V-780h45.39v131.08L366.4-305.39H700V-260ZM328.08-140v-45.39h371.53V-140H328.08Zm209.61-594.61h116.92-116.92Z"/></svg>
